modules/micon/icons/get-pocket.svg

<svg width="1792" height="1792" viewBox="0 0 1792 1792" xmlns="http://www.w3.org/2000/svg"><path d="M1601 128q65 0 110 45.5t45 110.5v519q0 176-68 336t-182.5 275-274 182.5-334.5 67.5q-176 0-335.5-67.5t-274.5-182.5-183-275-68-336v-519q0-64 46-110t110-46h1409zm-704 1064q47 0 82-33l404-388q37-35 37-85 0-49-34.5-83.5t-83.5-34.5q-47 0-82 33l-323 310-323-310q-35-33-81-33-49 0-83.5 34.5t-34.5 83.5q0 51 36 85l405 388q33 33 81 33z"/></svg>

<svg width="1792" height="1792" viewBox="0 0 1792 1792" xmlns="http://www.w3.org/2000/svg"><path d="M1601 128q65 0 110 45.5t45 110.5v519q0 176-68 336t-182.5 275-274 182.5T897 1664q-176 0-335.5-67.5T287 1414t-183-275-68-336V284q0-64 46-110t110-46h1409zM897 1192q47 0 82-33l404-388q37-35 37-85 0-49-34.5-83.5T1302 568q-47 0-82 33L897 911 574 601q-35-33-81-33-49 0-83.5 34.5T375 686q0 51 36 85l405 388q33 33 81 33z"/></svg>
